X: 1
T: Anne's Reel
C: Fergie MacDonald
R: reel
S: Page from Concord Slow Scottish Session collection
Z: 2017 John Chambers <jc:trillian.mit.edu>
M: C|
L: 1/8
K: D
(AG) |\
F2(EF) DFFD | FAAB B2(AB) | d2(fd) BddB |[1,3 ABAF EA :|[2,4 Addc d2 :|
|: (fg) |\
a2(ag) faaf | efed BddB | A2(fA) fAAf |[1,3 A2(fA) e2 :|[2,4 A2(fe) d2 :|
